assets/images/avatar/Avatar 07.svg

<svg fill="none" height="128" viewBox="0 0 128 128" width="128" xmlns="http://www.w3.org/2000/svg" xmlns:xlink="http://www.w3.org/1999/xlink"><mask id="a" height="114" maskUnits="userSpaceOnUse" width="112" x="8" y="7"><path clip-rule="evenodd" d="m62.1921 7.33078c17.6778-.35927 35.6847 5.11992 46.7219 18.89342 11.048 13.787 12.064 32.4286 8.204 49.651-3.886 17.3376-12.343 34.7568-28.7006 41.7988-15.79 6.798-33.2105-.373-48.266-8.664-13.7716-7.584-24.9962-18.8559-29.1731-33.9796-4.43029-16.0416-3.22792-33.6708 6.8209-46.9544 10.3537-13.6866 27.2029-20.39586 44.3929-20.74522z" fill="#eff6f7" fill-rule="evenodd"/></mask><g mask="url(#a)"><path clip-rule="evenodd" d="m62.1921 7.33078c17.6778-.35927 35.6847 5.11992 46.7219 18.89342 11.048 13.787 12.064 32.4286 8.204 49.651-3.886 17.3376-12.343 34.7568-28.7006 41.7988-15.79 6.798-33.2105-.373-48.266-8.664-13.7716-7.584-24.9962-18.8559-29.1731-33.9796-4.43029-16.0416-3.22792-33.6708 6.8209-46.9544 10.3537-13.6866 27.2029-20.39586 44.3929-20.74522z" fill="#eff6f7" fill-rule="evenodd"/><path d="m122.539 121.96c-3.627-14.346-14.102-24.6861-32.555-33.576-9.6122-4.6324-11.6236-10.621-11.6236-19.0812 0-6.7047-6.7048-10.5173-13.8393-11.6419v-.067l-.2011.0335-.2042-.0335v.067c-7.1375 1.1246-13.8362 4.928-13.8362 11.6419 0 8.4602-2.0145 14.4488-11.6267 19.0812-18.4533 8.896-28.92797 19.23-32.55463 33.576z" fill="#e7baef"/><path d="m122.542 121.957h-116.44679c3.63277-14.346 14.10739-24.6862 32.55769-33.5669 1.4977-.7142 2.9348-1.5489 4.2972-2.496 1.7645-1.2371 3.288-2.7864 4.4952-4.5715 3.7181 5.373 9.9779 8.5334 12.6415 9.4477.4825.2124.891.5635 1.1734 1.0087 1.5238 2.3528 2.4137 6.7444 2.816 9.17v.095h.259c.3901-2.4139 1.2678-6.8756 2.8282-9.265.2817-.4458.6903-.7971 1.1733-1.0087 2.685-.9448 9.0423-4.1417 12.7574-9.6092 1.1565 1.7919 2.6476 3.344 4.3916 4.5715 1.4114 1.0187 2.913 1.9062 4.4861 2.6514 18.4622 8.896 28.9372 19.227 32.5702 33.573z" fill="#353154"/><path d="m24.0609 121.957h-17.96569c2.34058-9.256 7.52459-16.832 15.86899-23.4245 1.7793 7.6735 2.4849 15.5565 2.0967 23.4245z" fill="#c8d2dc"/><path d="m122.542 121.957h-17.966c-.388-7.868.317-15.751 2.094-23.4245 8.344 6.5925 13.528 14.1655 15.872 23.4245z" fill="#c8d2dc"/><path d="m78.7535 74.752c-.2793-1.8027-.4108-3.6251-.3931-5.4492 0-6.7047-6.7048-10.5173-13.8393-11.6419v-.067l-.2011.0335-.2042-.0335v.067c-7.1375 1.1246-13.8362 4.928-13.8362 11.6419 0 3.9863-.4602 7.4179-1.9383 10.4229 5.5436 2.5234 20.3947 5.5649 30.4122-4.9737z" fill="#db9fe6"/><path d="m81.9017 80.8411c-.1015-.0712-.2271-.0993-.3493-.0781-.1222.0211-.2311.0897-.3028.1909-3.6968 5.5985-10.176 8.8868-12.9006 9.8225-.4827.2135-.8911.5657-1.1733 1.0118-1.5604 2.3863-2.4381 6.851-2.8252 9.2708h-.2651c-.384-2.4198-1.2648-6.8845-2.8252-9.2708-.2818-.4453-.689-.7973-1.1703-1.0118-2.7276-.9478-9.2129-4.224-12.9036-9.8225-.0717-.1012-.1806-.1698-.3028-.1909-.1222-.0212-.2478.0069-.3494.0781-2.1028 1.5238-3.6388 4.2332-3.6388 4.2332s-.0457 7.1558 7.5245 14.723c1.6092 1.6117 5.2267-.5303 7.3143-3.3371.8747-1.1825 1.6183-2.6728 2.2096-2.6728.3809 0 2.4533 4.6781 3.6175 7.2716v20.901h1.3745v-20.901c1.1276-2.5935 3.203-7.2716 3.5809-7.2716.5912 0 1.3349 1.4903 2.2095 2.6728 2.0755 2.8068 5.693 4.9488 7.3143 3.3371 7.5673-7.5672 7.5215-14.723 7.5215-14.723s-1.5543-2.7063-3.6602-4.2332z" fill="#c8d2dc"/><path d="m85.4277 58.2827c-1.734 1.0483-2.1607-1.4233-2.307-4.0351-.1524-2.6728.3566-7.2076 1.9413-9.1764 1.5848-1.9687 3.8918-3.0476 4.9463-.0914.9021 2.499-.4571 10.8129-4.5806 13.3029z" fill="#e7baef"/><path d="m43.0597 58.2827c1.7341 1.0483 2.1608-1.4233 2.3071-4.0351.1493-2.6728-.3596-7.2076-1.9413-9.1764-1.5818-1.9687-3.8919-3.0476-4.9494-.0914-.899 2.499.4602 10.8129 4.5836 13.3029z" fill="#e7baef"/><path d="m85.7813 29.2266c-1.1916-2.4868-3.6998-7.5733-8.2865-7.8811-8.1645-.5516-6.8083 3.0659-11.8247 2.9135h-.2591c-.0609-.0244-.6339-.0183-1.2404 0-.6064.0183-1.1794 0-1.2403-.0183-.0857.0218-.1737.0331-.2621.0336-5.0134.1523-3.6572-3.4652-11.8218-2.9136-4.5897.3048-7.0948 5.3943-8.2864 7.8812-1.9688 4.1112-5.5772 4.9493-4.4526 11.5809.1727 1.1549.417 2.2979.7314 3.4225.1433-.4968 1.0515-1.0789 1.6305-.8747 1.3531.4511 1.4263 3.5932 1.5482 5.0225.0701.7406.128 1.4781.2255 2.2156.2438 1.8835.4236 3.7242 1.2191 4.2271 3.8735 2.4167 8.5729 2.8434 11.459 3.5047 2.2431.5151 6.4.3048 9.2465.1372 2.8434.1707 7.0095.3779 9.2465-.1372 2.8861-.6613 7.5855-1.088 11.459-3.5047.8015-.5029.9814-2.3436 1.2191-4.2271.0975-.7375.1554-1.475.2255-2.2156.131-1.4263.195-4.5714 1.5451-5.0407.5791-.2042 1.4842.3779 1.6305.8746.3145-1.1246.5588-2.2676.7314-3.4225 1.1368-6.6285-2.4716-7.4666-4.4434-11.5779z" fill="#f6e7f8"/><path d="m84.5623 52.2118c-.0427-1.0728.0671-2.1333.061-3.2244 0-1.9261-.3048-4.4038-1.3349-6.0769-.3596-.5791-.9143-.8564-1.3867-1.3258-.5008-.5352-.9124-1.1475-1.219-1.8133-.1311-.2682-.2499-.5394-.3535-.8046-1.3593-3.4224.7253-6.2262-1.5238-10.624-2.2979-4.4982-6.5128-8.5089-14.4793-8.5333h-.3047c-4.8061 0-12.1905 4.029-14.4793 8.5333-2.2461 4.3978-.1615 7.2016-1.5238 10.624-.1036.2652-.2225.5364-.3535.8046-.3066.6658-.7182 1.2781-1.2191 1.8133-.4662.4694-1.027.7467-1.3866 1.3258-1.0301 1.6731-1.3166 4.1508-1.3349 6.0921 0 1.0759.1036 2.1517.061 3.2244-.0244.6096-.704.8625-1.4263.7711.2346 1.9426.7022 3.8499 1.3927 5.6807.6309 1.7311 1.1185 3.4865 1.7098 5.2328 2.6362 7.7653 10.8464 12.2392 12.8792 12.9189 1.2572.3713 2.5527.5983 3.8613.6765 1.3314.1372 2.6733.1372 4.0046 0 1.2678-.1462 2.5722-.259 3.7851-.6644 2.0359-.6796 10.2461-5.1535 12.8823-12.9188.5913-1.7463 1.0789-3.5017 1.7098-5.2328.6889-1.8313 1.1565-3.7384 1.3927-5.6807-.7162.064-1.3958-.1859-1.4141-.7985z" fill="#e7baef"/><g fill="#db9fe6"><path d="m53.5741 35.1055c1.7219-.4907 3.5322-.5638 5.3059-.6095 1.7737-.0458 3.5505.0609 5.312.1706s3.4926-.0426 5.2663-.0548 3.5931-.0701 5.3089.4601c-1.7615-.2255-3.5169.0001-5.2723.1494-1.772.2217-3.5569.3235-5.3425.3048-1.7707-.0549-3.5322-.192-5.2937-.2896-1.7575-.1459-3.522-.1896-5.2846-.131z"/><path d="m56.2804 32.643c1.2414-.5653 2.5697-.9156 3.9284-1.0362 1.3477-.1333 2.7033-.171 4.0564-.1127 1.347.0548 2.6849.1585 4.0137.2682 1.3283.1337 2.664.1806 3.9984.1402-1.3051.3821-2.6599.568-4.0198.5516-1.3501.0305-2.691-.0335-4.0228-.0732-2.6667-.0914-5.2998-.2194-7.9543.2621z"/></g></g></svg>

<svg width="128" height="128" viewBox="0 0 128 128" fill="none" xmlns="http://www.w3.org/2000/svg">
<mask id="mask0_457_1650" style="mask-type:alpha" maskUnits="userSpaceOnUse" x="8" y="7" width="112" height="114">
<path fill-rule="evenodd" clip-rule="evenodd" d="M62.1921 7.33078C79.8699 6.97151 97.8768 12.4507 108.914 26.2242C119.962 40.0112 120.978 58.6528 117.118 75.8752C113.232 93.2128 104.775 110.632 88.4174 117.674C72.6274 124.472 55.2069 117.301 40.1514 109.01C26.3798 101.426 15.1552 90.1541 10.9783 75.0304C6.54801 58.9888 7.75038 41.3596 17.7992 28.076C28.1529 14.3894 45.0021 7.68014 62.1921 7.33078Z" fill="#EFF6F7"/>
</mask>
<g mask="url(#mask0_457_1650)">
<path fill-rule="evenodd" clip-rule="evenodd" d="M62.1921 7.33078C79.8699 6.97151 97.8768 12.4507 108.914 26.2242C119.962 40.0112 120.978 58.6528 117.118 75.8752C113.232 93.2128 104.775 110.632 88.4174 117.674C72.6274 124.472 55.2069 117.301 40.1514 109.01C26.3798 101.426 15.1552 90.1541 10.9783 75.0304C6.54801 58.9888 7.75038 41.3596 17.7992 28.076C28.1529 14.3894 45.0021 7.68014 62.1921 7.33078Z" fill="#EFF6F7"/>
<path d="M122.539 121.96C118.912 107.614 108.437 97.2739 89.984 88.384C80.3718 83.7516 78.3604 77.763 78.3604 69.3028C78.3604 62.5981 71.6556 58.7855 64.5211 57.6609V57.5939L64.32 57.6274L64.1158 57.5939V57.6609C56.9783 58.7855 50.2796 62.5889 50.2796 69.3028C50.2796 77.763 48.2651 83.7516 38.6529 88.384C20.1996 97.28 9.72493 107.614 6.09827 121.96H122.539Z" fill="#E7BAEF"/>
<path d="M122.542 121.957H6.09521C9.72798 107.611 20.2026 97.2708 38.6529 88.3901C40.1506 87.6759 41.5877 86.8412 42.9501 85.8941C44.7146 84.657 46.2381 83.1077 47.4453 81.3226C51.1634 86.6956 57.4232 89.856 60.0868 90.7703C60.5693 90.9827 60.9778 91.3338 61.2602 91.779C62.784 94.1318 63.6739 98.5234 64.0762 100.949C64.0762 100.986 64.0762 101.01 64.0762 101.044H64.3352C64.7253 98.6301 65.603 94.1684 67.1634 91.779C67.4451 91.3332 67.8537 90.9819 68.3367 90.7703C71.0217 89.8255 77.379 86.6286 81.0941 81.1611C82.2506 82.953 83.7417 84.5051 85.4857 85.7326C86.8971 86.7513 88.3987 87.6388 89.9718 88.384C108.434 97.28 118.909 107.611 122.542 121.957Z" fill="#353154"/>
<path d="M24.0609 121.957H6.09521C8.43579 112.701 13.6198 105.125 21.9642 98.5325C23.7435 106.206 24.4491 114.089 24.0609 121.957V121.957Z" fill="#C8D2DC"/>
<path d="M122.542 121.957H104.576C104.188 114.089 104.893 106.206 106.67 98.5325C115.014 105.125 120.198 112.698 122.542 121.957Z" fill="#C8D2DC"/>
<path d="M78.7535 74.752C78.4742 72.9493 78.3427 71.1269 78.3604 69.3028C78.3604 62.5981 71.6556 58.7855 64.5211 57.6609V57.5939L64.32 57.6274L64.1158 57.5939V57.6609C56.9783 58.7855 50.2796 62.5889 50.2796 69.3028C50.2796 73.2891 49.8194 76.7207 48.3413 79.7257C53.8849 82.2491 68.736 85.2906 78.7535 74.752Z" fill="#DB9FE6"/>
<path d="M81.9017 80.8411C81.8002 80.7699 81.6746 80.7418 81.5524 80.763C81.4302 80.7841 81.3213 80.8527 81.2496 80.9539C77.5528 86.5524 71.0736 89.8407 68.349 90.7764C67.8663 90.9899 67.4579 91.3421 67.1757 91.7882C65.6153 94.1745 64.7376 98.6392 64.3505 101.059H64.0854C63.7014 98.6392 62.8206 94.1745 61.2602 91.7882C60.9784 91.3429 60.5712 90.9909 60.0899 90.7764C57.3623 89.8286 50.877 86.5524 47.1863 80.9539C47.1146 80.8527 47.0057 80.7841 46.8835 80.763C46.7613 80.7418 46.6357 80.7699 46.5341 80.8411C44.4313 82.3649 42.8953 85.0743 42.8953 85.0743C42.8953 85.0743 42.8496 92.2301 50.4198 99.7973C52.029 101.409 55.6465 99.267 57.7341 96.4602C58.6088 95.2777 59.3524 93.7874 59.9437 93.7874C60.3246 93.7874 62.397 98.4655 63.5612 101.059V121.96H64.9357V101.059C66.0633 98.4655 68.1387 93.7874 68.5166 93.7874C69.1078 93.7874 69.8515 95.2777 70.7261 96.4602C72.8016 99.267 76.4191 101.409 78.0404 99.7973C85.6077 92.2301 85.5619 85.0743 85.5619 85.0743C85.5619 85.0743 84.0076 82.368 81.9017 80.8411Z" fill="#C8D2DC"/>
<path d="M85.4277 58.2827C83.6937 59.331 83.267 56.8594 83.1207 54.2476C82.9683 51.5748 83.4773 47.04 85.062 45.0712C86.6468 43.1025 88.9538 42.0236 90.0083 44.9798C90.9104 47.4788 89.5512 55.7927 85.4277 58.2827Z" fill="#E7BAEF"/>
<path d="M43.0597 58.2827C44.7938 59.331 45.2205 56.8594 45.3668 54.2476C45.5161 51.5748 45.0072 47.04 43.4255 45.0712C41.8437 43.1025 39.5336 42.0236 38.4761 44.9798C37.5771 47.4788 38.9363 55.7927 43.0597 58.2827Z" fill="#E7BAEF"/>
<path d="M85.7813 29.2266C84.5897 26.7398 82.0815 21.6533 77.4948 21.3455C69.3303 20.7939 70.6865 24.4114 65.6701 24.259H65.411C65.3501 24.2346 64.7771 24.2407 64.1706 24.259C63.5642 24.2773 62.9912 24.259 62.9303 24.2407C62.8446 24.2625 62.7566 24.2738 62.6682 24.2743C57.6548 24.4266 59.011 20.8091 50.8464 21.3607C46.2567 21.6655 43.7516 26.755 42.56 29.2419C40.5912 33.3531 36.9828 34.1912 38.1074 40.8228C38.2801 41.9777 38.5244 43.1207 38.8388 44.2453C38.9821 43.7485 39.8903 43.1664 40.4693 43.3706C41.8224 43.8217 41.8956 46.9638 42.0175 48.3931C42.0876 49.1337 42.1455 49.8712 42.243 50.6087C42.4868 52.4922 42.6666 54.3329 43.4621 54.8358C47.3356 57.2525 52.035 57.6792 54.9211 58.3405C57.1642 58.8556 61.3211 58.6453 64.1676 58.4777C67.011 58.6484 71.1771 58.8556 73.4141 58.3405C76.3002 57.6792 80.9996 57.2525 84.8731 54.8358C85.6746 54.3329 85.8545 52.4922 86.0922 50.6087C86.1897 49.8712 86.2476 49.1337 86.3177 48.3931C86.4487 46.9668 86.5127 43.8217 87.8628 43.3524C88.4419 43.1482 89.347 43.7303 89.4933 44.227C89.8078 43.1024 90.0521 41.9594 90.2247 40.8045C91.3615 34.176 87.7531 33.3379 85.7813 29.2266Z" fill="#F6E7F8"/>
<path d="M84.5623 52.2118C84.5196 51.139 84.6294 50.0785 84.6233 48.9874C84.6233 47.0613 84.3185 44.5836 83.2884 42.9105C82.9288 42.3314 82.3741 42.0541 81.9017 41.5847C81.4009 41.0495 80.9893 40.4372 80.6827 39.7714C80.5516 39.5032 80.4328 39.232 80.3292 38.9668C78.9699 35.5444 81.0545 32.7406 78.8054 28.3428C76.5075 23.8446 72.2926 19.8339 64.3261 19.8095H64.0214C59.2153 19.8095 51.8309 23.8385 49.5421 28.3428C47.296 32.7406 49.3806 35.5444 48.0183 38.9668C47.9147 39.232 47.7958 39.5032 47.6648 39.7714C47.3582 40.4372 46.9466 41.0495 46.4457 41.5847C45.9795 42.0541 45.4187 42.3314 45.0591 42.9105C44.029 44.5836 43.7425 47.0613 43.7242 49.0026C43.7242 50.0785 43.8278 51.1543 43.7852 52.227C43.7608 52.8366 43.0812 53.0895 42.3589 52.9981C42.5935 54.9407 43.0611 56.848 43.7516 58.6788C44.3825 60.4099 44.8701 62.1653 45.4614 63.9116C48.0976 71.6769 56.3078 76.1508 58.3406 76.8305C59.5978 77.2018 60.8933 77.4288 62.2019 77.507C63.5333 77.6442 64.8752 77.6442 66.2065 77.507C67.4743 77.3608 68.7787 77.248 69.9916 76.8426C72.0275 76.163 80.2377 71.6891 82.8739 63.9238C83.4652 62.1775 83.9528 60.4221 84.5837 58.691C85.2726 56.8597 85.7402 54.9526 85.9764 53.0103C85.2602 53.0743 84.5806 52.8244 84.5623 52.2118Z" fill="#E7BAEF"/>
<path d="M53.5741 35.1055C55.296 34.6148 57.1063 34.5417 58.88 34.496C60.6537 34.4502 62.4305 34.5569 64.192 34.6666C65.9535 34.7763 67.6846 34.624 69.4583 34.6118C71.232 34.5996 73.0514 34.5417 74.7672 35.0719C73.0057 34.8464 71.2503 35.072 69.4949 35.2213C67.7229 35.443 65.938 35.5448 64.1524 35.5261C62.3817 35.4712 60.6202 35.3341 58.8587 35.2365C57.1012 35.0906 55.3367 35.0469 53.5741 35.1055V35.1055Z" fill="#DB9FE6"/>
<path d="M56.2804 32.643C57.5218 32.0777 58.8501 31.7274 60.2088 31.6068C61.5565 31.4735 62.9121 31.4358 64.2652 31.4941C65.6122 31.5489 66.9501 31.6526 68.2789 31.7623C69.6072 31.896 70.9429 31.9429 72.2773 31.9025C70.9722 32.2846 69.6174 32.4705 68.2575 32.4541C66.9074 32.4846 65.5665 32.4206 64.2347 32.3809C61.568 32.2895 58.9349 32.1615 56.2804 32.643Z" fill="#DB9FE6"/>
</g>
</svg>
